X: 6
T: Arthur Darley's
R: jig
M: 6/8
L: 1/8
K: Dmaj
e |:fgf edc|dAA BAG|FED EDC | DA,B, CDE|
|D2 d E2e|F2f G2g|fed edc|1d3 d2e:|2d2d d=c_B||
|:A2=f fef|A2=f fef|A=ff Agg|Aaa A_bb|
|A2=f fef|A2=f f2g|=fed ed^c|1d3 d=c_B:|2d3 d2||


Tune 417	Setting 417

